X: 30449
T: Old Wexford, The
R: reel
M: 4/4
K: Adorian
g2 eg dB B2|g2 eg a2 ba|g2 eg dBBA|(3Bcd ge dGBd|
g2 eg dB B2|g2 eg a2 ba|g2 eg dBBA|(3Bcd ge dBAG|
EA A2 GB B2|dege dBAG|EA A2 GA (3Bcd|gedB A3 G|
EA A2 GB B2|dege dBAG|EA A2 GA (3Bcd|gedB A3 g|

